icons/svg/16x16/bookmark add alt1/filled.svg

<svg xmlns="http://www.w3.org/2000/svg" width="16" height="16" viewBox="0 0 16 16">
  <path fill-rule="evenodd" d="M10.1631,10.3291 L8.0001,9.1911 L5.8371,10.3291 L6.2501,7.9201 L4.5001,6.2141 L6.9181,5.8631 L8.0001,3.6711 L9.0821,5.8631 L11.5001,6.2141 L9.7501,7.9201 L10.1631,10.3291 Z M11.0001,1.0001 L5.0001,1.0001 C3.8951,1.0001 3.0001,1.8951 3.0001,3.0001 L3.0001,16.0001 L8.0001,13.0001 L13.0001,16.0001 L13.0001,3.0001 C13.0001,1.8951 12.1041,1.0001 11.0001,1.0001 L11.0001,1.0001 Z"/>
</svg>

<svg width="16" height="16" fill="none" xmlns="http://www.w3.org/2000/svg">
  <path fill-rule="evenodd" clip-rule="evenodd" d="M10.163 10.33L8 9.19l-2.163 1.14.413-2.41L4.5 6.214l2.418-.35L8 3.67l1.082 2.192 2.418.351L9.75 7.92l.413 2.41zM11 1H5a2 2 0 00-2 2v13l5-3 5 3V3a2 2 0 00-2-2z" fill="#000"/>
</svg>
